X: 108
T:Paddy Carey. JaW.108
M:6/8
Q:120
C:"A Good One"
S:James Winder Ms, Lancashire, 1835-41
R:Jig
O:England
A:Wyresdale,Lancashire
H:1/8
Z:vmp.Chris Partington, Aug 2004
K:C
F|G2c cBc|e2c cBc|A2d dcd|f2d BAG|!
G2c cBc|e2c cBc|BAG GAB|c2zz2z||!
c2ef2a|g2a gec|c2ef2a|gec d2e|!
c2ef2a|g2a gec|c3 edc|BAB c2G|!
cGe cGe|c3-c3:|]
